symbolic/16x16/panel/discord-tray-unread.svg

<svg xmlns="http://www.w3.org/2000/svg" width="16" height="16" version="1.1">
 <defs>
  <style id="current-color-scheme" type="text/css">
   .ColorScheme-Text { color:#323a41; } .ColorScheme-Highlight { color:#4285f4; } .ColorScheme-NeutralText { color:#ff9800; } .ColorScheme-PositiveText { color:#4caf50; } .ColorScheme-NegativeText { color:#f44336; }
  </style>
 </defs>
 <path style="fill:currentColor" class="ColorScheme-Text" d="M 6.3789062 2 C 6.3789062 2 4.6184395 1.957047 2.7539062 3.4980469 C 0.88928408 5.0391469 5.9211895e-16 8.2292185 0 12.824219 C 0 12.824219 2.1383111 14.899 5 15 C 5 15 5.6115556 14.548 6 14 C 4.3555555 13.453 3.4394531 11.632813 3.4394531 11.632812 C 4.9546531 12.585814 6.4288888 12.983 8 13 C 9.571111 12.983 11.045347 12.585814 12.560547 11.632812 C 12.560547 11.632813 11.644445 13.453 10 14 C 10.388444 14.548 11 15 11 15 C 13.861689 14.899 16 12.824219 16 12.824219 C 16 8.2292185 15.110716 5.0391469 13.246094 3.4980469 C 11.38156 1.957047 9.6210938 2 9.6210938 2 L 9.4921875 2.171875 C 11.822943 2.906575 12.882812 4.5449219 12.882812 4.5449219 C 12.882812 4.5449219 12.598252 4.3730781 12.119141 4.1425781 C 10.665985 3.3577781 9.333333 3 8 3 C 6.6666666 3 5.3340149 3.3577781 3.8808594 4.1425781 C 3.4017483 4.3730781 3.1171875 4.5449219 3.1171875 4.5449219 C 3.1171875 4.5449219 4.177057 2.906575 6.5078125 2.171875 L 6.3789062 2 z M 5.5 8 C 6.3381317 8 7.0149989 8.668 7 9.5 C 7 10.332 6.3381317 11 5.5 11 C 4.6766671 11 4 10.332 4 9.5 C 4 8.668 4.6619684 8 5.5 8 z M 10.5 8 C 11.338032 8 12 8.668 12 9.5 C 12 10.332 11.323333 11 10.5 11 C 9.661868 11 9 10.332 9 9.5 C 8.9850011 8.668 9.661868 8 10.5 8 z"/>
 <circle style="fill:currentColor" class="ColorScheme-Highlight" cx="14.5" cy="1.5" r="1.5"/>
</svg>

<svg xmlns="http://www.w3.org/2000/svg" width="16" height="16"><defs><style id="current-color-scheme" type="text/css"></style></defs><path style="fill:currentColor;color:#323a41" d="M6.379 2s-1.76-.043-3.625 1.498S0 8.229 0 12.824c0 0 2.138 2.075 5 2.176 0 0 .612-.452 1-1-1.644-.547-2.56-2.367-2.56-2.367C4.954 12.586 6.428 12.983 8 13c1.571-.017 3.045-.414 4.56-1.367 0 0-.916 1.82-2.56 2.367.388.548 1 1 1 1 2.862-.101 5-2.176 5-2.176 0-4.595-.89-7.785-2.754-9.326C11.382 1.957 9.621 2 9.621 2l-.129.172c2.33.735 3.39 2.373 3.39 2.373s-.284-.172-.763-.402C10.666 3.358 9.333 3 8 3c-1.333 0-2.666.358-4.12 1.143-.478.23-.763.402-.763.402s1.06-1.638 3.39-2.373L6.38 2zM5.5 8c.838 0 1.515.668 1.5 1.5 0 .832-.662 1.5-1.5 1.5-.823 0-1.5-.668-1.5-1.5S4.662 8 5.5 8zm5 0c.838 0 1.5.668 1.5 1.5s-.677 1.5-1.5 1.5C9.662 11 9 10.332 9 9.5A1.482 1.482 0 0 1 10.5 8z"/><circle style="fill:currentColor;color:#4285f4" cx="14.5" cy="1.5" r="1.5"/></svg>
